packages/foundations/assets/icons/functional/images/transportation/airplane_16_inverted.svg

<svg width="16" height="16" viewBox="0 0 16 16" fill="none" xmlns="http://www.w3.org/2000/svg">
<g clip-path="url(#clip0_2214_6634)">
<path fill-rule="evenodd" clip-rule="evenodd" d="M13.066 5.43375L11.1261 6.07631L11.5283 7.18834C12.803 6.77367 13.6895 6.48624 14.1877 6.32606C14.641 7.18834 14.316 8.03954 13.1752 8.38834L10.528 9.21794L8.44163 13.0323C8.37443 13.1443 8.26243 13.2339 8.12803 13.2795L7.65203 13.4027C7.33763 13.4923 7.02403 13.2459 7.02403 12.9091L7.00163 10.3291L5.16643 10.9011C4.06723 11.2595 3.10243 10.6099 2.81123 9.77954L1.64483 6.50434C1.57683 6.27954 1.61923 6.08274 1.83763 5.97394L2.22403 5.81394C2.38363 5.74324 2.56038 5.79504 2.71569 5.93236L3.98643 7.18834L9.98963 5.31474C11.1158 4.95244 12.2416 5.07526 13.066 5.43375ZM5.3888 7.96516C5.1176 8.15471 5.0504 8.52903 5.24 8.80017C5.4296 9.07251 5.8028 9.13849 6.0752 8.94893C6.3476 8.75938 6.4136 8.38626 6.224 8.11392C6.0344 7.84159 5.6612 7.7756 5.3888 7.96516ZM7.38131 7.36538C7.11011 7.55378 7.04291 7.92818 7.23251 8.19938C7.42211 8.47178 7.79531 8.53898 8.06771 8.34818C8.34011 8.15978 8.40611 7.78658 8.21651 7.51418C8.02691 7.24178 7.65251 7.17578 7.38131 7.36538ZM9.37382 6.75406C9.10262 6.94245 9.03542 7.31806 9.22502 7.58806C9.41462 7.86046 9.78782 7.92766 10.0602 7.73806C10.3326 7.54846 10.3986 7.17526 10.209 6.90286C10.0194 6.63046 9.64502 6.56446 9.37382 6.75406ZM6.16867 2.74746L8.32467 4.77866L5.75907 5.56506L4.69987 3.52826C4.55027 3.19226 4.72867 2.83706 5.06947 2.74666L5.59267 2.59946C5.79827 2.54426 6.01987 2.60106 6.16867 2.74746Z" fill="#1A1C1F"/>
</g>
<defs>
<clipPath id="clip0_2214_6634">
<rect width="16" height="16" fill="white"/>
</clipPath>
</defs>
</svg>

<svg xmlns="http://www.w3.org/2000/svg" width="16" height="16" fill="none"><g clip-path="url(#a)"><path fill="#1A1C1F" fill-rule="evenodd" d="m13.066 5.434-1.94.642.402 1.112q1.913-.621 2.66-.862c.453.862.128 1.714-1.013 2.062l-2.647.83-2.086 3.814a.58.58 0 0 1-.314.248l-.476.123a.5.5 0 0 1-.628-.494l-.022-2.58-1.836.572A1.86 1.86 0 0 1 2.811 9.78L1.645 6.504c-.068-.224-.026-.421.193-.53l.386-.16c.16-.07.336-.019.492.118l1.27 1.256L9.99 5.315c1.126-.363 2.252-.24 3.076.119M5.389 7.965a.6.6 0 1 0 .687.984.6.6 0 0 0-.687-.984m1.992-.6a.599.599 0 1 0 .685.983.599.599 0 0 0-.685-.983m1.993-.61a.599.599 0 1 0 .685.982.599.599 0 0 0-.685-.983M6.169 2.746 8.325 4.78l-2.566.786L4.7 3.528a.557.557 0 0 1 .37-.781l.524-.148a.6.6 0 0 1 .576.148" clip-rule="evenodd"/></g><defs><clipPath id="a"><path fill="#fff" d="M0 0h16v16H0z"/></clipPath></defs></svg>
